src/images/single-assets/CHARM.svg

<svg xmlns="http://www.w3.org/2000/svg" shape-rendering="crispEdges" viewBox="0 -0.5 30 30"><defs><radialGradient id="a" cx=".55" cy=".45" r=".5"><stop offset="0%" stop-color="#e63ad1"/><stop offset="100%" stop-color="#73c6f4"/></radialGradient></defs><path stroke="url(#a)" d="M8 4h14M8 5h14M6 6h18M6 7h18M4 8h22M4 9h22M4 10h22M4 11h22M4 12h22M4 13h22M4 14h22M4 15h22M4 16h22M4 17h22M4 18h22M4 19h22M4 20h22M4 21h22M6 22h18M6 23h18M8 24h14M8 25h14"/><path stroke="#e63ad1" d="M8 0h14M8 1h14M6 2h2m14 0h2M6 3h2m14 0h2M4 4h2m18 0h2M4 5h2m18 0h2M2 6h2m22 0h2M2 7h2m22 0h2M0 8h2m26 0h2M0 9h2m26 0h2M0 10h2m26 0h2M0 11h2m26 0h2M0 12h2m26 0h2M0 13h2m26 0h2M0 14h2m26 0h2M0 15h2m26 0h2M0 16h2m26 0h2M0 17h2m26 0h2M0 18h2m26 0h2M0 19h2m26 0h2M0 20h2m26 0h2M0 21h2m26 0h2M2 22h2m22 0h2M2 23h2m22 0h2M4 24h2m18 0h2M4 25h2m18 0h2M6 26h2m14 0h2M6 27h2m14 0h2M8 28h14M8 29h14"/><path stroke="#a684e2" d="M8 2h14M8 3h14M6 4h2m14 0h2M6 5h2m14 0h2M4 6h2m18 0h2M4 7h2m18 0h2M2 8h2m22 0h2M2 9h2m22 0h2M2 10h2m22 0h2M2 11h2m22 0h2M2 12h2m22 0h2M2 13h2m22 0h2M2 14h2m22 0h2M2 15h2m22 0h2M2 16h2m22 0h2M2 17h2m22 0h2M2 18h2m22 0h2M2 19h2m22 0h2M2 20h2m22 0h2M2 21h2m22 0h2M4 22h2m18 0h2M4 23h2m18 0h2M6 24h2m14 0h2M6 25h2m14 0h2M8 26h14M8 27h14"/><path stroke="#fefeff" d="M15 6h1m2 0h1m-3 1h1m1 0h1m-6 1h1m7 0h1m-9 1h2m5 0h1m-7 1h2m2 0h2m-6 1h6m2 0h2m-10 1h5m-7 1h7m3 0h1m-13 1h10m3 0h1m-9 1h6m-8 1h1m1 0h2m3 0h2m-10 1h1m2 0h2m-6 1h1m3 0h1m-6 1h1m4 0h1m-7 1h1m-2 1h1m-2 1h1"/><path stroke="rgba(255,255,255,0.25098039215686274)" d="M20 8h1m0 1h1m-10 3h1m-1 4h1m-2 1h1m1 0h1m3 0h1m-8 1h1m1 0h1m-4 1h1m1 0h1m-4 1h1m1 0h1m-4 1h1m1 0h1m-2 1h1"/><path stroke="rgba(254,254,254,0.7019607843137254)" d="M19 9h1m-7 1h1m3 0h1m2 0h1m-2 2h1m-9 1h1m7 3h1m-4 2h1"/><path stroke="rgba(255,255,255,0.7490196078431373)" d="M13 12h1m3 4h1"/></svg>

<?xml version="1.0" encoding="UTF-8"?>
<!DOCTYPE svg PUBLIC "-//W3C//DTD SVG 1.1//EN"
  "http://www.w3.org/Graphics/SVG/1.1/DTD/svg11.dtd">
<svg xmlns="http://www.w3.org/2000/svg" version="1.1" viewBox="0 -0.5 30 30" shape-rendering="crispEdges">

  <!-- Gradient -->
  <defs>
    <radialGradient id="RadialGradient1" cx="0.55" cy="0.45" r="0.5">
      <stop offset="0%" stop-color="#e63ad1" />
      <stop offset="100%" stop-color="#73c6f4" />
    </radialGradient>
  </defs>
  <!-- Light Blue Path -->
  <path stroke="url(#RadialGradient1)" d="M8 4h14M8 5h14M6 6h18M6 7h18M4 8h22M4 9h22M4 10h22M4 11h22M4 12h22M4 13h22M4 14h22M4 15h22M4 16h22M4 17h22M4 18h22M4 19h22M4 20h22M4 21h22M6 22h18M6 23h18M8 24h14M8 25h14" />
  <!-- Purple Path -->
  <path stroke="#e63ad1" d="M8 0h14M8 1h14M6 2h2M22 2h2M6 3h2M22 3h2M4 4h2M24 4h2M4 5h2M24 5h2M2 6h2M26 6h2M2 7h2M26 7h2M0 8h2M28 8h2M0 9h2M28 9h2M0 10h2M28 10h2M0 11h2M28 11h2M0 12h2M28 12h2M0 13h2M28 13h2M0 14h2M28 14h2M0 15h2M28 15h2M0 16h2M28 16h2M0 17h2M28 17h2M0 18h2M28 18h2M0 19h2M28 19h2M0 20h2M28 20h2M0 21h2M28 21h2M2 22h2M26 22h2M2 23h2M26 23h2M4 24h2M24 24h2M4 25h2M24 25h2M6 26h2M22 26h2M6 27h2M22 27h2M8 28h14M8 29h14" />
  <!-- Magenta Path -->
  <path stroke="#a684e2" d="M8 2h14M8 3h14M6 4h2M22 4h2M6 5h2M22 5h2M4 6h2M24 6h2M4 7h2M24 7h2M2 8h2M26 8h2M2 9h2M26 9h2M2 10h2M26 10h2M2 11h2M26 11h2M2 12h2M26 12h2M2 13h2M26 13h2M2 14h2M26 14h2M2 15h2M26 15h2M2 16h2M26 16h2M2 17h2M26 17h2M2 18h2M26 18h2M2 19h2M26 19h2M2 20h2M26 20h2M2 21h2M26 21h2M4 22h2M24 22h2M4 23h2M24 23h2M6 24h2M22 24h2M6 25h2M22 25h2M8 26h14M8 27h14" />

  <!-- Logo Front -->
  <path stroke="#fefeff" d="M15 6h1M18 6h1M16 7h1M18 7h1M13 8h1M21 8h1M13 9h2M20 9h1M14 10h2M18 10h2M14 11h6M22 11h2M14 12h5M12 13h7M22 13h1M10 14h10M23 14h1M15 15h6M13 16h1M15 16h2M20 16h2M12 17h1M15 17h2M11 18h1M15 18h1M10 19h1M15 19h1M9 20h1M8 21h1M7 22h1" />

  <path stroke="rgba(255,255,255,0.25098039215686274)" d="M20 8h1M21 9h1M12 12h1M12 16h1M11 17h1M13 17h1M17 17h1M10 18h1M12 18h1M9 19h1M11 19h1M8 20h1M10 20h1M7 21h1M9 21h1M8 22h1" />

  <path stroke="rgba(254,254,254,0.7019607843137254)" d="M19 9h1M13 10h1M17 10h1M20 10h1M19 12h1M11 13h1M19 16h1M16 18h1" />
  <path stroke="rgba(255,255,255,0.7490196078431373)" d="M13 12h1M17 16h1" />

</svg>
